svgs/sharp-regular/suitcase-medical.svg

<svg xmlns="http://www.w3.org/2000/svg" viewBox="0 0 512 512"><!--! Font Awesome Pro 6.6.0 by @fontawesome - https://fontawesome.com License - https://fontawesome.com/license (Commercial License) Copyright 2024 Fonticons, Inc. --><path d="M128 0l24 0L360 0l24 0 0 24 0 72 80 0 48 0 0 48 0 288 0 48-48 0L48 480 0 480l0-48L0 144 0 96l48 0 80 0 0-72 0-24zM336 48L176 48l0 48 160 0 0-48zm24 96l-208 0-8 0 0 288 224 0 0-288-8 0zM96 144l-48 0 0 288 48 0 0-288zM416 432l48 0 0-288-48 0 0 288zM229.3 208l53.3 0 0 53.3 53.3 0 0 53.3-53.3 0 0 53.3-53.3 0 0-53.3-53.3 0 0-53.3 53.3 0 0-53.3z"/></svg>

<svg xmlns="http://www.w3.org/2000/svg" viewBox="0 0 512 512"><!--! Font Awesome Pro 6.4.0 by @fontawesome - https://fontawesome.com License - https://fontawesome.com/license (Commercial License) Copyright 2023 Fonticons, Inc. --><path d="M128 0h24H360h24V24 96h80 48v48V432v48H464 48 0V432 144 96H48h80V24 0zM336 48H176V96H336V48zm24 96H152h-8V432H368V144h-8zM96 144H48V432H96V144zM416 432h48V144H416V432zM229.3 208h53.3v53.3l53.3 0v53.3H282.7V368H229.3V314.7H176V261.3h53.3V208z"/></svg>
